/* XPM */
/* This file can be converted to EPS by the GROMACS program xpm2ps */
/* title:   "Gibbs Energy Landscape" */
/* legend:  "G (kJ/mol)" */
/* x-label: "PC1" */
/* y-label: "PC2" */
/* type:    "Continuous" */
static char *gromacs_xpm[] = {
"8 8   25 1",
"A  c #000000 " /* "0" */,
"B  c #0B0B0B " /* "0.27" */,
"C  c #151515 " /* "0.54" */,
"D  c #202020 " /* "0.81" */,
"E  c #2B2B2B " /* "1.08" */,
"F  c #353535 " /* "1.35" */,
"G  c #404040 " /* "1.62" */,
"H  c #4A4A4A " /* "1.89" */,
"I  c #555555 " /* "2.16" */,
"J  c #606060 " /* "2.43" */,
"K  c #6A6A6A " /* "2.7" */,
"L  c #757575 " /* "2.97" */,
"M  c #808080 " /* "3.24" */,
"N  c #8A8A8A " /* "3.51" */,
"O  c #959595 " /* "3.78" */,
"P  c #9F9F9F " /* "4.05" */,
"Q  c #AAAAAA " /* "4.32" */,
"R  c #B5B5B5 " /* "4.59" */,
"S  c #BFBFBF " /* "4.86" */,
"T  c #CACACA " /* "5.13" */,
"U  c #D5D5D5 " /* "5.4" */,
"V  c #DFDFDF " /* "5.67" */,
"W  c #EAEAEA " /* "5.94" */,
"X  c #F4F4F4 " /* "6.21" */,
"Y  c #FFFFFF " /* "6.48" */,
/* x-axis:  -0.645202 -0.506283 -0.367363 -0.228444 -0.089525 0.0493942 0.188313 0.327233 0.466152 */
/* y-axis:  -0.582301 -0.439784 -0.297268 -0.154751 -0.012235 0.130281 0.272798 0.415314 0.557831 */
"YYYYUYYY",
"YYYYAOKU",
"YYYOHFUU",
"UYYBKYCO",
"FFHKYKFK",
"OUKUYYHU",
"YYYYYOFO",
"YYYYYYUU"
