/* XPM */
/* This file can be converted to EPS by the GROMACS program xpm2ps */
/* title:   "Probability Distribution" */
/* legend:  "" */
/* x-label: "PC1" */
/* y-label: "PC2" */
/* type:    "Continuous" */
static char *gromacs_xpm[] = {
"8 8   25 1",
"A  c #000000 " /* "0" */,
"B  c #0B0B0B " /* "0.00371" */,
"C  c #151515 " /* "0.00743" */,
"D  c #202020 " /* "0.0111" */,
"E  c #2B2B2B " /* "0.0149" */,
"F  c #353535 " /* "0.0186" */,
"G  c #404040 " /* "0.0223" */,
"H  c #4A4A4A " /* "0.026" */,
"I  c #555555 " /* "0.0297" */,
"J  c #606060 " /* "0.0334" */,
"K  c #6A6A6A " /* "0.0371" */,
"L  c #757575 " /* "0.0408" */,
"M  c #808080 " /* "0.0446" */,
"N  c #8A8A8A " /* "0.0483" */,
"O  c #959595 " /* "0.052" */,
"P  c #9F9F9F " /* "0.0557" */,
"Q  c #AAAAAA " /* "0.0594" */,
"R  c #B5B5B5 " /* "0.0631" */,
"S  c #BFBFBF " /* "0.0668" */,
"T  c #CACACA " /* "0.0705" */,
"U  c #D5D5D5 " /* "0.0743" */,
"V  c #DFDFDF " /* "0.078" */,
"W  c #EAEAEA " /* "0.0817" */,
"X  c #F4F4F4 " /* "0.0854" */,
"Y  c #FFFFFF " /* "0.0891" */,
/* x-axis:  -0.645202 -0.506283 -0.367363 -0.228444 -0.089525 0.0493942 0.188313 0.327233 0.466152 */
/* y-axis:  -0.582301 -0.439784 -0.297268 -0.154751 -0.012235 0.130281 0.272798 0.415314 0.557831 */
"AAAADAAA",
"AAAAYFID",
"AAAFLNDD",
"DAAVIATF",
"NNLIAINI",
"FDIDAALD",
"AAAAAFNF",
"AAAAAADD"
