/* XPM */
/* This file can be converted to EPS by the GROMACS program xpm2ps */
/* title:   "RMS Deviation / Cluster Index" */
/* legend:  "RMSD (nm)" */
/* x-label: "Time (ps)" */
/* y-label: "Time (ps)" */
/* type:    "Continuous" */
static char *gromacs_xpm[] = {
"101 101   40 1",
"A  c #FFFFFF " /* "0" */,
"B  c #F8F8F8 " /* "0.00289" */,
"C  c #F2F2F2 " /* "0.00579" */,
"D  c #EBEBEB " /* "0.00868" */,
"E  c #E5E5E5 " /* "0.0116" */,
"F  c #DEDEDE " /* "0.0145" */,
"G  c #D8D8D8 " /* "0.0174" */,
"H  c #D1D1D1 " /* "0.0203" */,
"I  c #CBCBCB " /* "0.0232" */,
"J  c #C4C4C4 " /* "0.026" */,
"K  c #BEBEBE " /* "0.0289" */,
"L  c #B7B7B7 " /* "0.0318" */,
"M  c #B1B1B1 " /* "0.0347" */,
"N  c #AAAAAA " /* "0.0376" */,
"O  c #A3A3A3 " /* "0.0405" */,
"P  c #9D9D9D " /* "0.0434" */,
"Q  c #969696 " /* "0.0463" */,
"R  c #909090 " /* "0.0492" */,
"S  c #898989 " /* "0.0521" */,
"T  c #838383 " /* "0.055" */,
"U  c #7C7C7C " /* "0.0579" */,
"V  c #767676 " /* "0.0608" */,
"W  c #6F6F6F " /* "0.0637" */,
"X  c #696969 " /* "0.0666" */,
"Y  c #626262 " /* "0.0695" */,
"Z  c #5C5C5C " /* "0.0724" */,
"a  c #555555 " /* "0.0752" */,
"b  c #4E4E4E " /* "0.0781" */,
"c  c #484848 " /* "0.081" */,
"d  c #414141 " /* "0.0839" */,
"e  c #3B3B3B " /* "0.0868" */,
"f  c #343434 " /* "0.0897" */,
"g  c #2E2E2E " /* "0.0926" */,
"h  c #272727 " /* "0.0955" */,
"i  c #212121 " /* "0.0984" */,
"j  c #1A1A1A " /* "0.101" */,
"k  c #141414 " /* "0.104" */,
"l  c #0D0D0D " /* "0.107" */,
"m  c #070707 " /* "0.11" */,
"n  c #000000 " /* "0.113" */,
/* x-axis:  0 1 2 3 4 5 6 7 8 9 10 11 12 13 14 15 16 17 18 19 20 21 22 23 24 25 26 27 28 29 30 31 32 33 34 35 36 37 38 39 40 41 42 43 44 45 46 47 48 49 50 51 52 53 54 55 56 57 58 59 60 61 62 63 64 65 66 67 68 69 70 71 72 73 74 75 76 77 78 79 */
/* x-axis:  80 81 82 83 84 85 86 87 88 89 90 91 92 93 94 95 96 97 98 99 100 */
/* y-axis:  0 1 2 3 4 5 6 7 8 9 10 11 12 13 14 15 16 17 18 19 20 21 22 23 24 25 26 27 28 29 30 31 32 33 34 35 36 37 38 39 40 41 42 43 44 45 46 47 48 49 50 51 52 53 54 55 56 57 58 59 60 61 62 63 64 65 66 67 68 69 70 71 72 73 74 75 76 77 78 79 */
/* y-axis:  80 81 82 83 84 85 86 87 88 89 90 91 92 93 94 95 96 97 98 99 100 */
"eehhkihgifbaccebcdedfgdfeeccdddefecefhcfifccaacdefeeededeeecbbegcbdbcZaaacbacXadYaaWWVUWUUXVYVWTSSQPA",
"efggjiigihdaeehdfdfeggegegdegefggfdfhiefggaaaYbcdeeeeccbddecbaefcbcdcZZaabbbcYZdYZZVWUUVUVWUXVWUUVRAn",
"degfkjifigdaefhddegfhiehfheegffhhhfhijggjhccbZddeefggdedfeedbcegdbdddaabacaZbXZdYYaWVSUTSSURUTTSSSAnn",
"ddffiigehfbYcdfdedfffgcgdecceffhhheffgefifccbcdeffdggefeeedbcbdfecedecacdecaeabeacbXZYYWUVYXZZWTRAnnn",
"cceehhgehdbYddfdddfefgceddbcdceffgdedfbdhebaZabdfedfgeededdcbbddcbcddbZabdaZdYacZbbWYYXVUVYXYWWVAnnnn",
"eghimkjhjifcfgjgghihjkhkhighiiikkhgijlhikicedcfghhghhfffgfgddegjedfedabccedcdbdgbdcXWUWWUVUTWVRAnnnnn",
"ggghliigigeaefiffggffgdigiefhggjjgehhjfehgbcbacdedcddbccfccaabdfcbbbaXZcZcaabZadZaZWXUWUUVTTVSAnnnnnn",
"fhiinmjijiedggkfgfgghigjhjggifgjihgjlmihljddbbcffggfddfdffeccdffdcedcabcacebcabeacbXUVVWVVUSRAnnnnnnn",
"efggkkigihfcfgjfgdffhigihlihkhhlkjikmnjimkccbZceddegeddceeedcbefcceddbZbaababZbeaccYVTTVVVVSAnnnnnnnn",
"eghhlkigjieaffjeddfghiehfieegeghggdiklhfihbbcZefhffgfceegfedcdfhdceecZZbZbcZZWXaXZZWTTUURRQAnnnnnnnnn",
"fhiimljhkifbegjeefhhijgjijgfifhkigfijkhfihcddbedhffgfcefggfebeggdbcaZXXZZbcZYWYbXXYWUTTVQSAnnnnnnnnnn",
"acffhhddgdaWZbdYYYbcdfccacZZaYacbbZcefbdfdZZaZddfgddcbddddcbZbeeaYbZaXXXXabXYUVYUXXUUUUUPAnnnnnnnnnnn",
"acfehhfegdaWabeaZacdegcececcdbdgedceegbcfdZZaYbccdcdbZbbcbabZaccZYZZYWVWXYYWWTWZUWWUUSRQAnnnnnnnnnnnn",
"deffjiheggdZceheedfefhdgdhddhcfiggeeffbbecZZaYZabbadcZaZccbaXZacZYabZYWYYZYXYVYbWYXTWSQAnnnnnnnnnnnnn",
"efhhkkjhiheaceheeceegheihjggiegjigeghieehfbbbZcdddeedbcabdbbZadcZXaaZXXYYYZXZWZcWXZVTQAnnnnnnnnnnnnnn",
"efhhkkjgiheadehdedfehifigjggifgjjifhkkgghgbbbYbdddefecbadedbYaddbZbcZYXZXZbaaYadXYaVSAnnnnnnnnnnnnnnn",
"cegfijgfhebZcdfbccdbeecgdgddedeggfdgijeeggaZZYcefgfedbebcdaaYbccbZbaaYZZYYcbbYYbXYZVAnnnnnnnnnnnnnnnn",
"abddfedbdcYVYYdYaYaZZbXbZcYZcZbdcbZacbYZcaXXXXXYacZZYWaYZZZWVWYaZXXXWVXWVXWWYVUYSTTAnnnnnnnnnnnnnnnnn",
"dddegddcdcaXaadacaabbcadbfabcbcefbbcdeabbbYXWXbZcbYXXWYZYWXXWWYaXYXXWXaYWWVWWTUVRQAnnnnnnnnnnnnnnnnnn",
"edddecdbdbaWZbcZdababcZcdebcdacefcacddaabbYXYWaZbbZXXWYYZZXXVXZYYWUWVWZWVWVWXSRVQAnnnnnnnnnnnnnnnnnnn",
"ccffgeedebZVYaaYaZaZabZcacZacZaccaYabcZabaXWXWaacdaXXXZaYZYYVWYYXWUVTUXUTUVWYSRSAnnnnnnnnnnnnnnnnnnnn",
"efihhgfgjecYcccababcdeacbeaacabbcaYbcecZdecYabgfjhdbccgfedabbceeedaYZaaYYWYYZUOAnnnnnnnnnnnnnnnnnnnnn",
"ddfefeddgcaWabcZaYabacYaacZZbZabbZXabdZYccYVWWbaedaZZYbbbaXYXZabaZXWWYXVUTTTVPAnnnnnnnnnnnnnnnnnnnnnn",
"ccfeggeefbaXacdZbZcddfcdbebacabccbabceaaddYWXXbadbZZZYZaaZZaXYbbYYYXVXWUVVURRAnnnnnnnnnnnnnnnnnnnnnnn",
"dfhhkjgghebbcfjeddeggjegfifegdegfddfggbcffbbbaedfecebbdbecacbdegcacbZaZaYWWQAnnnnnnnnnnnnnnnnnnnnnnnn",
"cbcdgfdceaaYZbecbabdceaddfbcecceecabbcYYecZZYYbbcbZaaYaZaYYZZYccZYZYXYYXWUQAnnnnnnnnnnnnnnnnnnnnnnnnn",
"cabcebcbcaaXabcbdaaaZbZcdfbcedcfgcbaacXYcaXWWWZZZZXYZXYYYWWXXWYaXYWWVXXWURAnnnnnnnnnnnnnnnnnnnnnnnnnn",
"bceegedefbbYZacYbYYYZaYcbebbdbaddZYacdYZbcYWVWbbbcZYXWZYYXVXWXaYYYYVUWXVSAnnnnnnnnnnnnnnnnnnnnnnnnnnn",
"badcfdcceaZVZacZbaZXZbZbacYabYZcbYXYacYZaYTUUUXXabYWVUXXYYXWUVXYVUTTQSSQAnnnnnnnnnnnnnnnnnnnnnnnnnnnn",
"ZZdbdcbceZZVYYaYcZZYZbabcdZadZcecaZZacZbbZVVXXZYbbYXWUWXWYYZUVWWUUTTSSRAnnnnnnnnnnnnnnnnnnnnnnnnnnnnn",
"abfdhfdfhcaXZadacbbbceadcebbeZcfedabcdacbaXWYWZZccZbZYaZbbaZWYYZYVWXTSAnnnnnnnnnnnnnnnnnnnnnnnnnnnnnn",
"bbedgeddebZWYacacbaaabbeddabdZcfebZbbeZcbaXXXYYYacZYXWYYYYZXUXXYVTVTQAnnnnnnnnnnnnnnnnnnnnnnnnnnnnnnn",
"ccedfeeeeaaXYZdadbZaabaedfacdcdgfaaZadZbbaYXXXZZbcZXVVXWWXXWTVWWTUSRAnnnnnnnnnnnnnnnnnnnnnnnnnnnnnnnn",
"ddeeedceeaZXWZaZcaZZXYZcccZababdeZYYZcYacaZYXZbZcfaXWXaaYZZYVWYWVUUAnnnnnnnnnnnnnnnnnnnnnnnnnnnnnnnnn",
"dbccdccbbZYWZabbfdbYZabeeebcebdgfdaaZbYaZXXWYYWZZZXVVUVUVXWWUSVSRRAnnnnnnnnnnnnnnnnnnnnnnnnnnnnnnnnnn",
"ZZbdfeccbZWVWaaZcbaYbccedcbccZbfecabadZdaYYZYZXZabZWVUWVUXWWUTWTPAnnnnnnnnnnnnnnnnnnnnnnnnnnnnnnnnnnn",
"bZbbdccbaYYWYZaaebZXaaceefbdecehgdcbadadbZXYXZXYZYXUVVUTRTUWTQUTAnnnnnnnnnnnnnnnnnnnnnnnnnnnnnnnnnnnn",
"ecdddefdcaaXZaabfbbXYYZeefcdfceiigdccebdcaaXXYXZYbYXXXYVVXVWTSUAnnnnnnnnnnnnnnnnnnnnnnnnnnnnnnnnnnnnn",
"cZaabbcabaXWZaccgcaXaZYdefcdgfgijhdcddcccaWVWWVWZXVXXWWTUTURSRAnnnnnnnnnnnnnnnnnnnnnnnnnnnnnnnnnnnnnn",
"bXYZaaaYYYVVWWZYdZXVXYYbbdabdbcggecbabZabYVVVWUWWWTTTSSQRRUUSAnnnnnnnnnnnnnnnnnnnnnnnnnnnnnnnnnnnnnnn",
"caddcdcabYXUWXZYcYYWXZYabdZacZcddcaYabYaZYVVUWWWYZWWWVVUUVUTAnnnnnnnnnnnnnnnnnnnnnnnnnnnnnnnnnnnnnnnn",
"bZabbabZaZVUYYaaeZXWaXXbceaccdcfgdZaccaaaZVVTWVYZYWWXVXTTRQAnnnnnnnnnnnnnnnnnnnnnnnnnnnnnnnnnnnnnnnnn",
"ZYYYYZZZYWVUXXZZcYVVYYXabebbddcffcZcbbZYYYVUTXXYZXWVWUXSRQAnnnnnnnnnnnnnnnnnnnnnnnnnnnnnnnnnnnnnnnnnn",
"aWYYZYZZYYWVYXZZcZWWaZZbbeabcdcffdbbacaaZbVXUZXZaWTUVSTQPAnnnnnnnnnnnnnnnnnnnnnnnnnnnnnnnnnnnnnnnnnnn",
"ZVXYXYYYWWWVWWYYdXVTYYZbbebbcccfgcaabbabaZVXVYWXXXWUVTUQAnnnnnnnnnnnnnnnnnnnnnnnnnnnnnnnnnnnnnnnnnnnn",
"bYXYabaYYYVWYXdbeaYXabacdgcdeddhhebcddZZYZVWUURVVTUUTSQAnnnnnnnnnnnnnnnnnnnnnnnnnnnnnnnnnnnnnnnnnnnnn",
"eaZababZZaaYaadcgcbabccefieegefihfcddfbbZaUXWXVXWSTSUQAnnnnnnnnnnnnnnnnnnnnnnnnnnnnnnnnnnnnnnnnnnnnnn",
"bZZacbaabZXWYYcZcZXXXaYaacaacaZebZXaZbXXWYTWUXWXXXTRPAnnnnnnnnnnnnnnnnnnnnnnnnnnnnnnnnnnnnnnnnnnnnnnn",
"dbddfdadcZXXYYbYcaXYYaabacaabZZdbXXabcYaYYWXVYXYYaVQAnnnnnnnnnnnnnnnnnnnnnnnnnnnnnnnnnnnnnnnnnnnnnnnn",
"eaabcYYZYYZXYZZZdZYWWYYZacZabaaccZXZYbYXXVUWTYWWWWTAnnnnnnnnnnnnnnnnnnnnnnnnnnnnnnnnnnnnnnnnnnnnnnnnn",
"cYYYZXXXZXYXYYaadYYYWYXYaeZacbbeeebaabYWYXTTTWUVUSAnnnnnnnnnnnnnnnnnnnnnnnnnnnnnnnnnnnnnnnnnnnnnnnnnn",
"gbZacacYZabadcfeiddbcdbehkggjihllkhgghebcaWXXWTUTAnnnnnnnnnnnnnnnnnnnnnnnnnnnnnnnnnnnnnnnnnnnnnnnnnnn",
"gbZbdbcbZaaabbecgcbaXbZdfhefigfkkifefgbcdZXYWVRSAnnnnnnnnnnnnnnnnnnnnnnnnnnnnnnnnnnnnnnnnnnnnnnnnnnnn",
"eaZZcZbaaZZYZaccfbaZZbYbdeabeddghedacdZaaWUUUTRAnnnnnnnnnnnnnnnnnnnnnnnnnnnnnnnnnnnnnnnnnnnnnnnnnnnnn",
"dZYZcaaZYYWXZadcfbaYZaYbeebdfddhhhdddeaabXUVTTAnnnnnnnnnnnnnnnnnnnnnnnnnnnnnnnnnnnnnnnnnnnnnnnnnnnnnn",
"aZZZbbbabZYWZbcacYZXZaWabeabdcbffdaaedaYaYTQRAnnnnnnnnnnnnnnnnnnnnnnnnnnnnnnnnnnnnnnnnnnnnnnnnnnnnnnn",
"YWYYaZYZZXWVXZZYaWWVWXVXYZWYZZXaaZWXYaXWXWROAnnnnnnnnnnnnnnnnnnnnnnnnnnnnnnnnnnnnnnnnnnnnnnnnnnnnnnnn",
"YXYYZZZZaXXUZZZYaWXVXXVYXbWXaYYabZXXYaWVWVQAnnnnnnnnnnnnnnnnnnnnnnnnnnnnnnnnnnnnnnnnnnnnnnnnnnnnnnnnn",
"ZWXXYXWWXVWUXYaYbXXWXZWXYcXYaZZbbaXXZaWWVTAnnnnnnnnnnnnnnnnnnnnnnnnnnnnnnnnnnnnnnnnnnnnnnnnnnnnnnnnnn",
"cabddaaaaXYXZaaaebaYZaYZbbYZaZaccaXVVWUUTAnnnnnnnnnnnnnnnnnnnnnnnnnnnnnnnnnnnnnnnnnnnnnnnnnnnnnnnnnnn",
"cbcdecbdcaZYaabadaaabcZaaaXZZZZbaZVXWWUTAnnnnnnnnnnnnnnnnnnnnnnnnnnnnnnnnnnnnnnnnnnnnnnnnnnnnnnnnnnnn",
"dabbcbaabZZXZadbbYZaYaWXaaVYaaZZbZWWVTSAnnnnnnnnnnnnnnnnnnnnnnnnnnnnnnnnnnnnnnnnnnnnnnnnnnnnnnnnnnnnn",
"bacdebaccXXWXXZYZZYYVZXWWUTVXVVXXVTSQSAnnnnnnnnnnnnnnnnnnnnnnnnnnnnnnnnnnnnnnnnnnnnnnnnnnnnnnnnnnnnnn",
"baddedcfeaaYaabbbbbaadZYZXVYZaaZZYXTRAnnnnnnnnnnnnnnnnnnnnnnnnnnnnnnnnnnnnnnnnnnnnnnnnnnnnnnnnnnnnnnn",
"bZcdebaccYZXYZYZaaZZYbYYYVTVWXXXXVURAnnnnnnnnnnnnnnnnnnnnnnnnnnnnnnnnnnnnnnnnnnnnnnnnnnnnnnnnnnnnnnnn",
"bZeefcbddZYXWYYXYXXYXZXWVURTWUUUVUTAnnnnnnnnnnnnnnnnnnnnnnnnnnnnnnnnnnnnnnnnnnnnnnnnnnnnnnnnnnnnnnnnn",
"bbeffbaceZXWXXYXXWXYXaXWTTTTTSSTTRAnnnnnnnnnnnnnnnnnnnnnnnnnnnnnnnnnnnnnnnnnnnnnnnnnnnnnnnnnnnnnnnnnn",
"bcgghecffaaZZaaXYYYaZdaZWUVUTTTUUAnnnnnnnnnnnnnnnnnnnnnnnnnnnnnnnnnnnnnnnnnnnnnnnnnnnnnnnnnnnnnnnnnnn",
"bcjikhdghdbabbaXWYabbebXTUTUTRRQAnnnnnnnnnnnnnnnnnnnnnnnnnnnnnnnnnnnnnnnnnnnnnnnnnnnnnnnnnnnnnnnnnnnn",
"dchhgebdfbaZZaYVWWYZZcZUTUSSRSQAnnnnnnnnnnnnnnnnnnnnnnnnnnnnnnnnnnnnnnnnnnnnnnnnnnnnnnnnnnnnnnnnnnnnn",
"ZZdegcZcdZXXXYWUTUWWXZXUSRSSRRAnnnnnnnnnnnnnnnnnnnnnnnnnnnnnnnnnnnnnnnnnnnnnnnnnnnnnnnnnnnnnnnnnnnnnn",
"bbgghebdfaYXXXYVWWZZYcZWTTTRSAnnnnnnnnnnnnnnnnnnnnnnnnnnnnnnnnnnnnnnnnnnnnnnnnnnnnnnnnnnnnnnnnnnnnnnn",
"YYdddaXacYWWXXWTVVWXYaWVRRQQAnnnnnnnnnnnnnnnnnnnnnnnnnnnnnnnnnnnnnnnnnnnnnnnnnnnnnnnnnnnnnnnnnnnnnnnn",
"aYdddaXZbXWUVUVTTUUWVYUTQSPAnnnnnnnnnnnnnnnnnnnnnnnnnnnnnnnnnnnnnnnnnnnnnnnnnnnnnnnnnnnnnnnnnnnnnnnnn",
"YWcbcaXZbWVSUUWUUUVWUWTSQQAnnnnnnnnnnnnnnnnnnnnnnnnnnnnnnnnnnnnnnnnnnnnnnnnnnnnnnnnnnnnnnnnnnnnnnnnnn",
"ZZfegdaefZXXXYXXVYYYXbXVRAnnnnnnnnnnnnnnnnnnnnnnnnnnnnnnnnnnnnnnnnnnnnnnnnnnnnnnnnnnnnnnnnnnnnnnnnnnn",
"YYdcdbYacYWUWWXUUUVWWZUTAnnnnnnnnnnnnnnnnnnnnnnnnnnnnnnnnnnnnnnnnnnnnnnnnnnnnnnnnnnnnnnnnnnnnnnnnnnnn",
"aWaYXVTWYUVTUUUUVSSUTVSAnnnnnnnnnnnnnnnnnnnnnnnnnnnnnnnnnnnnnnnnnnnnnnnnnnnnnnnnnnnnnnnnnnnnnnnnnnnnn",
"aYaZaXXXZWWTVUWVXTTSRRAnnnnnnnnnnnnnnnnnnnnnnnnnnnnnnnnnnnnnnnnnnnnnnnnnnnnnnnnnnnnnnnnnnnnnnnnnnnnnn",
"eabbaXYYYXYWWWWXaWTRQAnnnnnnnnnnnnnnnnnnnnnnnnnnnnnnnnnnnnnnnnnnnnnnnnnnnnnnnnnnnnnnnnnnnnnnnnnnnnnnn",
"dYbaaYXYYVXVUUWVXUTSAnnnnnnnnnnnnnnnnnnnnnnnnnnnnnnnnnnnnnnnnnnnnnnnnnnnnnnnnnnnnnnnnnnnnnnnnnnnnnnnn",
"ZVZYYXWXXUUSUTTSWTQAnnnnnnnnnnnnnnnnnnnnnnnnnnnnnnnnnnnnnnnnnnnnnnnnnnnnnnnnnnnnnnnnnnnnnnnnnnnnnnnnn",
"XVZWXWSWVTSSRRUQSOAnnnnnnnnnnnnnnnnnnnnnnnnnnnnnnnnnnnnnnnnnnnnnnnnnnnnnnnnnnnnnnnnnnnnnnnnnnnnnnnnnn",
"WVZXXYTWXUVSSTTQSAnnnnnnnnnnnnnnnnnnnnnnnnnnnnnnnnnnnnnnnnnnnnnnnnnnnnnnnnnnnnnnnnnnnnnnnnnnnnnnnnnnn",
"YYecfcYbcZWUUUVQAnnnnnnnnnnnnnnnnnnnnnnnnnnnnnnnnnnnnnnnnnnnnnnnnnnnnnnnnnnnnnnnnnnnnnnnnnnnnnnnnnnnn",
"ZXcaaaWZaVUTTRQAnnnnnnnnnnnnnnnnnnnnnnnnnnnnnnnnnnnnnnnnnnnnnnnnnnnnnnnnnnnnnnnnnnnnnnnnnnnnnnnnnnnnn",
"aWbaYXWZZUVTTTAnnnnnnnnnnnnnnnnnnnnnnnnnnnnnnnnnnnnnnnnnnnnnnnnnnnnnnnnnnnnnnnnnnnnnnnnnnnnnnnnnnnnnn",
"ZWbZaYVXXUSRQAnnnnnnnnnnnnnnnnnnnnnnnnnnnnnnnnnnnnnnnnnnnnnnnnnnnnnnnnnnnnnnnnnnnnnnnnnnnnnnnnnnnnnnn",
"YVZZZYUXWTRPAnnnnnnnnnnnnnnnnnnnnnnnnnnnnnnnnnnnnnnnnnnnnnnnnnnnnnnnnnnnnnnnnnnnnnnnnnnnnnnnnnnnnnnnn",
"VSWVWVTUVSOAnnnnnnnnnnnnnnnnnnnnnnnnnnnnnnnnnnnnnnnnnnnnnnnnnnnnnnnnnnnnnnnnnnnnnnnnnnnnnnnnnnnnnnnnn",
"WSWVXWTVURAnnnnnnnnnnnnnnnnnnnnnnnnnnnnnnnnnnnnnnnnnnnnnnnnnnnnnnnnnnnnnnnnnnnnnnnnnnnnnnnnnnnnnnnnnn",
"YTUUTTRTSAnnnnnnnnnnnnnnnnnnnnnnnnnnnnnnnnnnnnnnnnnnnnnnnnnnnnnnnnnnnnnnnnnnnnnnnnnnnnnnnnnnnnnnnnnnn",
"aTTUUTRPAnnnnnnnnnnnnnnnnnnnnnnnnnnnnnnnnnnnnnnnnnnnnnnnnnnnnnnnnnnnnnnnnnnnnnnnnnnnnnnnnnnnnnnnnnnnn",
"aTUUUQQAnnnnnnnnnnnnnnnnnnnnnnnnnnnnnnnnnnnnnnnnnnnnnnnnnnnnnnnnnnnnnnnnnnnnnnnnnnnnnnnnnnnnnnnnnnnnn",
"XSUSTPAnnnnnnnnnnnnnnnnnnnnnnnnnnnnnnnnnnnnnnnnnnnnnnnnnnnnnnnnnnnnnnnnnnnnnnnnnnnnnnnnnnnnnnnnnnnnnn",
"bUTTSAnnnnnnnnnnnnnnnnnnnnnnnnnnnnnnnnnnnnnnnnnnnnnnnnnnnnnnnnnnnnnnnnnnnnnnnnnnnnnnnnnnnnnnnnnnnnnnn",
"bUUQAnnnnnnnnnnnnnnnnnnnnnnnnnnnnnnnnnnnnnnnnnnnnnnnnnnnnnnnnnnnnnnnnnnnnnnnnnnnnnnnnnnnnnnnnnnnnnnnn",
"VQPAnnnnnnnnnnnnnnnnnnnnnnnnnnnnnnnnnnnnnnnnnnnnnnnnnnnnnnnnnnnnnnnnnnnnnnnnnnnnnnnnnnnnnnnnnnnnnnnnn",
"WQAnnnnnnnnnnnnnnnnnnnnnnnnnnnnnnnnnnnnnnnnnnnnnnnnnnnnnnnnnnnnnnnnnnnnnnnnnnnnnnnnnnnnnnnnnnnnnnnnnn",
"RAnnnnnnnnnnnnnnnnnnnnnnnnnnnnnnnnnnnnnnnnnnnnnnnnnnnnnnnnnnnnnnnnnnnnnnnnnnnnnnnnnnnnnnnnnnnnnnnnnnn",
"Annnnnnnnnnnnnnnnnnnnnnnnnnnnnnnnnnnnnnnnnnnnnnnnnnnnnnnnnnnnnnnnnnnnnnnnnnnnnnnnnnnnnnnnnnnnnnnnnnnn"
