/* XPM */
/* This file can be converted to EPS by the GROMACS program xpm2ps */
/* title:   "Enthalpy Landscape" */
/* legend:  "H (kJ/mol)" */
/* x-label: "PC1" */
/* y-label: "PC2" */
/* type:    "Continuous" */
static char *gromacs_xpm[] = {
"8 8   25 1",
"A  c #000000 " /* "0" */,
"B  c #0B0B0B " /* "0.0417" */,
"C  c #151515 " /* "0.0833" */,
"D  c #202020 " /* "0.125" */,
"E  c #2B2B2B " /* "0.167" */,
"F  c #353535 " /* "0.208" */,
"G  c #404040 " /* "0.25" */,
"H  c #4A4A4A " /* "0.292" */,
"I  c #555555 " /* "0.333" */,
"J  c #606060 " /* "0.375" */,
"K  c #6A6A6A " /* "0.417" */,
"L  c #757575 " /* "0.458" */,
"M  c #808080 " /* "0.5" */,
"N  c #8A8A8A " /* "0.542" */,
"O  c #959595 " /* "0.583" */,
"P  c #9F9F9F " /* "0.625" */,
"Q  c #AAAAAA " /* "0.667" */,
"R  c #B5B5B5 " /* "0.708" */,
"S  c #BFBFBF " /* "0.75" */,
"T  c #CACACA " /* "0.792" */,
"U  c #D5D5D5 " /* "0.833" */,
"V  c #DFDFDF " /* "0.875" */,
"W  c #EAEAEA " /* "0.917" */,
"X  c #F4F4F4 " /* "0.958" */,
"Y  c #FFFFFF " /* "1" */,
/* x-axis:  -0.645202 -0.506283 -0.367363 -0.228444 -0.089525 0.0493942 0.188313 0.327233 0.466152 */
/* y-axis:  -0.582301 -0.439784 -0.297268 -0.154751 -0.012235 0.130281 0.272798 0.415314 0.557831 */
"YYYYAYYY",
"YYYYAAAA",
"YYYAAAAA",
"AYYAAYAA",
"AAAAYAAA",
"AAAAYYAA",
"YYYYYAAA",
"YYYYYYAA"
